X:13
T:Lichtmann 13
C:F. J. Haydn
M:2/4
L:1/8
Q:"Allegro" 1/4=126
K:G
!mf!D3"_spiritoso"G|E3G|(FA) DF|G2 z G|(FA) DF|G2 z G|(F/G/)A/F/ (D/E/)F/D/|
G3(A/B/)|cc BB|AA GG|(F/G/)A/B/ (A/G/)F/E/|D4||D3G|E3G|(FA) DF|G2 z G|
(FA) DF|G2 z G|(F/G/)A/F/ (D/E/)F/D/|G3 (A/B/)|cc BB|AA GG|(A/B/)c/A/ (F/G/)A/F/|G4|]

